X:1
T:Hiding in Thee
T:Hiding in Thee
T:Ira David Sankey, 1877
T:William Orcutt Cushing, 1876
T:Public Domain Courtesy of the Cyber Hymnal™
T:Public Domain Courtesy of the Cyber Hymnal™
C:Ira David Sankey, 1877
Z:Public Domain
Z:Courtesy of the Cyber Hymnal™
%%score ( 1 2 ) ( 3 4 )
L:1/8
Q:1/4=125
M:4/4
K:F
V:1 treble 
V:2 treble 
V:3 bass 
V:4 bass 
V:1
 [Fc]-[Fc] | [Fc]4 [FB]2 [FA]2 | [FA]4 [CG]2 [CF]2 | (F2 E2) D2 [CE]2 | [CF]6 F-F | %5
w: 1.~O *|safe to the|Rock that is|high- * er than|I, My *|
w: 2.~In~the *|calm of the|noon- tide, in|sor- * row’s lone|hour, In *|
w: 3.~How *|oft in the|con- flict, when|pressed * by the|foe, I~have *|
 [FB]4 [FA]2 [Fd]2 | [Fc]4 [FA]2 F2 | [EG]4 [FA]2 [F=B]2 | [Ec]6 [Ec]-[Ec] | [Fc]4 [FB]2 [FA]2 | %10
w: soul in its|con- flicts and|sor- rows would|fly; So *|sin- ful, so|
w: times when temp-|ta- tion casts|o’er me its|power; In~the *|temp- ests of|
w: fled to my|Ref- uge and|breathed out my|woe; How *|oft- en, when|
 [FA]4 [CG]2 [CF]2 | (F2 E2) D2 [CE]2 | [CF]6 F2 | [FB]4 [FA]2 [Fd]2 | [Fc]4 [FA]2 F2 | %15
w: wear- y, Thine,|Thine, * would I|be; Thou|blest “Rock of|Ag- es,” I’m|
w: life, on its|wide, * heav- ing|sea, Thou|blest “Rock of|Ag- es,” I’m|
w: tri- als like|sea * bil- lows|roll, Have~I|hid- den in|Thee, O Thou|
 [FA]4 [EA]3 [EG] | F6 ||"^Refrain" [EG]4 [EG]3 [FA] | [GB]6 z2 | [FA]4 [FA]3 [FB] | [Fc]6 [Ac]2 | %21
w: hid- ing in|Thee.|||||
w: hid- ing in|Thee.|Hid- ing in|Thee,|Hid- ing in|Thee, Thou|
w: rock of my|soul.|||||
 [Af]4 [ce]3 [Bd] | [Ac]4 [FA]2 F2 | [FA]4 [EA]3 [EG] | F6 |] %25
w: ||||
w: blest “Rock of|Ag- es,” I’m|hid- ing in|Thee.|
w: ||||
V:2
 x2 | x8 | x8 | B,4 D2 x2 | x6 F-F | x8 | x6 F2 | x8 | x8 | x8 | x8 | B,4 D2 x2 | x6 F2 | x8 | %14
 x6 F2 | x8 | F6 || x8 | x8 | x8 | x8 | x8 | x6 F2 | x8 | F6 |] %25
V:3
 [F,A,]-[F,A,] | [F,A,]4 [F,D]2 [F,C]2 | [F,C]4 [F,B,]2 [F,A,]2 | [C,G,]4 [C,B,]2 [C,B,]2 | %4
 [F,A,]6 [F,A,]-[F,A,] | [F,D]4 [F,C]2 [F,B,]2 | [F,A,]4 [F,C]2 [A,,C]2 | [C,C]4 [F,C]2 [D,G,]2 | %8
 [C,G,]6 [C,B,]-[C,B,] | [F,A,]4 [F,D]2 [F,C]2 | [F,C]4 [F,B,]2 [F,A,]2 | [C,G,]4 [C,B,]2 [C,B,]2 | %12
 [F,A,]6 [F,A,]2 | [F,D]4 [F,C]2 [F,B,]2 | [F,A,]4 F,2 [D,A,]2 | [C,C]4 [C,C]3 [C,B,] | [F,A,]6 || %17
 [C,C]4 [C,C]3 [C,C] | [C,C]6 z2 | [F,C]4 [F,C]3 [F,G,] | [F,A,]6 [F,C]2 | [F,C]4 [F,C]3 [F,F] | %22
 [F,F]4 [F,C]2 ([F,A,][D,=B,]) | [C,C]4 [C,C]3 [C,B,] | [F,A,]6 |] %25
V:4
 x2 | x8 | x8 | x8 | x8 | x8 | x8 | x8 | x8 | x8 | x8 | x8 | x8 | x8 | x4 F,2 x2 | x8 | x6 || x8 | %18
 x8 | x8 | x8 | x8 | x8 | x8 | x6 |] %25

